X:1
T:E. O. Excell
T:Gerhard Tersteegen
T:God is Calling Yet
%%score { ( 1 2 ) | ( 3 4 ) }
L:1/8
M:4/4
K:Ab
V:1 treble 
V:2 treble 
V:3 bass 
V:4 bass 
V:1
{/x} F,,,,2 AB c3 c | cB d2 c4 | B2 BB A2 B2 | B2 F2 AGFE | E2 AB c3 c | cB d2 c4 | B2 cd c3 B | %7
w: God call\- ing yet! shall|I * not hear?|Earth's plea\- sures shall I|still hold dear? * Shall *|life's swift * pass\- ing|years * all fly,|And still my soul in|
w: God call\- ing yet! shall|I * not rise?|Can I His lov\- ing|voice de\- spise, * And *|base\- ly * His kind|care * re\- pay?|He calls me still; can|
w: God call\- ing yet! and|shall * He knock,|And I my heart the|clos\- er lock? * He *|still is * wait\- ing|to * re\- ceive,|And shall I dare His|
w: God call\- ing yet! I|can\- * not stay;|My heart I yield with\-|out de\- lay; * Vain *|world, fare\- * well, from|thee * I part;|The voice of God has|
 AGFG A4 |"^Chorus" e4 cEFE | d4 BEFE | A3 c B2 A2 | %11
w: slum\- * ber * lie?|Call\- ing, oh, hear Him|call\- ing, oh, hear Him,|God is call\- ing|
w: I * de\- * lay?||||
w: Spir\- * it * grieve?||||
w: reached * my * heart.||||
"^rit." A,,[Q:1/4=110]"^Allegretto"E[Q:1/4=100]"^Allegretto"F[Q:1/4=90]"^Allegretto"G[Q:1/4=80]"^Allegretto" A[Q:1/4=72]"^Adagio"A[Q:1/4=50]"^Largo"A[Q:1/4=48]"^Largo"A | %12
w: yet, oh, hear Him call\- ing, call\- ing;|
w: |
w: |
w: |
"^a tempo"[Q:1/4=120]"^Allegretto" e4 cEFE | e4 dF^GF | E3 A cBAG | %15
w: Call\- ing, oh, hear HIm,|call\- ing, oh, hear Him,|God is cal\- ling yet, oh,|
w: |||
w: |||
w: |||
"^rit." F[Q:1/4=112]"^Moderato"E[Q:1/4=72]"^Maestoso"F[Q:1/4=48]"^Largo"G[Q:1/4=48]"^Largo" A4 |] %16
w: hear Him call\- ing yet.|
w: |
w: |
w: |
V:2
 C2 CD E3 E | E2 D2 E4 | E2 EE E2 E2 | =D2 D2 _D2 D2 | C2 CD E3 E | E2 E2 E4 | F2 FF E3 E | %7
 ED C2 C4 | AAAA ACDC | GGGG GDDD | C3 E E2 =D2 | EE=D_D CCCC | AAAA ACDC | _GGGG FDED | %14
 C3 C EEED | DDDD C4 |] %16
V:3
 A,2 A,A, A,3 A, | A,G, B,2 A,4 | D2 DD C2 G,2 | F,2 B,2 B,2 B,G, | A,2 A,2 A,3 A, | A,G, B,2 A,4 | %6
w: ||||||
 A,2 A,A, A,3 D | CB,A,B, A,4 | CCCC E z z2 | B,B,B,B, D z z2 | A,3 A, G,2 F,2 | G, z z2 z4 | %12
w: ||God is call- ing yet,|God is call- ing yet,|||
 CCCC E z z2 | A,A,A,A, A, z z2 | A,3 A, A,DCB, | A,G,A,B, A,4 |] %16
w: God is call- ing yet,|God is call- ing yet,|||
V:4
 A,,2 A,,A,, A,,3 A,, | E,2 E,2 A,,4 | E,2 E,E, E,2 E,2 | B,,2 B,,2 E,2 E,2 | A,,2 A,,2 A,,3 A,, | %5
 E,2 E,2 A,,4 | D,2 D,D, E,3 E, | E,2 E,2 A,,4 | A,A,A,A, A, z z2 | E,E,E,E, E, z z2 | %10
 A,,3 A,, B,,2 B,,2 | E, z z2 z4 | A,A,A,A, A, z z2 | C,C,C,C, C, z z2 | E,3 E, E,E,E,E, | %15
 E,E,E,E, A,,4 |] %16

